icons/Flow Icon.svg

<svg fill="none" height="16" viewBox="0 0 16 16" width="16" xmlns="http://www.w3.org/2000/svg" xmlns:xlink="http://www.w3.org/1999/xlink"><clipPath id="a"><path d="m0 0h16v16h-16z"/></clipPath><g clip-path="url(#a)" stroke="#999" stroke-width="2"><path d="m5.33325 4h5.33335l-5.33335 8h5.33335"/><g stroke-linecap="square" stroke-miterlimit="10"><path d="m3.33325 6c1.10457 0 2-.89543 2-2s-.89543-2-2-2c-1.10456 0-2 .89543-2 2s.89544 2 2 2z"/><path d="m12.6665 14c1.1046 0 2-.8954 2-2s-.8954-2-2-2-2 .8954-2 2 .8954 2 2 2z"/></g></g></svg>

<svg width="16" height="16" viewBox="0 0 16 16" fill="none" xmlns="http://www.w3.org/2000/svg">
<g clip-path="url(#clip0_81_1669)">
<path d="M5.33325 4H10.6666L5.33325 12H10.6666" stroke="#999999" stroke-width="2"/>
<path d="M3.33325 6C4.43782 6 5.33325 5.10457 5.33325 4C5.33325 2.89543 4.43782 2 3.33325 2C2.22869 2 1.33325 2.89543 1.33325 4C1.33325 5.10457 2.22869 6 3.33325 6Z" stroke="#999999" stroke-width="2" stroke-miterlimit="10" stroke-linecap="square"/>
<path d="M12.6665 14C13.7711 14 14.6665 13.1046 14.6665 12C14.6665 10.8954 13.7711 10 12.6665 10C11.5619 10 10.6665 10.8954 10.6665 12C10.6665 13.1046 11.5619 14 12.6665 14Z" stroke="#999999" stroke-width="2" stroke-miterlimit="10" stroke-linecap="square"/>
</g>
<defs>
<clipPath id="clip0_81_1669">
<rect width="16" height="16" fill="white"/>
</clipPath>
</defs>
</svg>
